src/assets/icons/numbers.svg

<svg width="34" height="24" viewBox="0 0 34 24" fill="none" xmlns="http://www.w3.org/2000/svg">
<rect x="0.5" y="0.5" width="33" height="23" rx="2.5" fill="#FCECEA" stroke="#F5C0B8"/>
<path d="M10.2861 15.5H11.7607V8.4541H10.291L8.46973 9.71875V11.0469L10.1982 9.8457H10.2861V15.5ZM13.6357 10.5928H15.0029C15.0029 9.9043 15.4521 9.4209 16.1699 9.4209C16.8584 9.4209 17.2588 9.87988 17.2588 10.4561C17.2588 10.9443 17.0684 11.2666 16.1895 12.1211L13.7188 14.5088V15.5H18.8018V14.3135H15.7061V14.2256L17.1709 12.8291C18.3428 11.7158 18.7041 11.1494 18.7041 10.3242C18.7041 9.1377 17.7471 8.27344 16.2529 8.27344C14.71 8.27344 13.6357 9.2207 13.6357 10.5928ZM21.8535 12.4092H22.7471C23.5381 12.4092 24.0264 12.8096 24.0264 13.4541C24.0264 14.0742 23.5039 14.4941 22.7568 14.4941C22 14.4941 21.4922 14.1084 21.4482 13.498H20.0371C20.1006 14.8164 21.1846 15.6807 22.7764 15.6807C24.3682 15.6807 25.5303 14.8066 25.5303 13.5762C25.5303 12.6289 24.9346 12.0039 23.9531 11.8574V11.7695C24.71 11.5791 25.2471 11.0225 25.252 10.168C25.2568 9.1377 24.3877 8.27344 22.8252 8.27344C21.2383 8.27344 20.2373 9.14746 20.1885 10.4316H21.5508C21.5996 9.78223 22.0391 9.41113 22.752 9.41113C23.4404 9.41113 23.8555 9.82617 23.8555 10.3682C23.8555 10.9541 23.4014 11.3594 22.7324 11.3594H21.8535V12.4092Z" fill="#B72B1A"/>
</svg>

<svg width="34" height="24" fill="none" xmlns="http://www.w3.org/2000/svg"><rect x=".5" y=".5" width="33" height="23" rx="2.5" fill="#FCECEA" stroke="#F5C0B8"/><path d="M10.286 15.5h1.475V8.454h-1.47L8.47 9.72v1.328l1.728-1.201h.088V15.5zm3.35-4.907h1.367c0-.689.45-1.172 1.167-1.172.688 0 1.089.459 1.089 1.035 0 .488-.19.81-1.07 1.665l-2.47 2.388v.991h5.083v-1.187h-3.096v-.087l1.465-1.397c1.172-1.113 1.533-1.68 1.533-2.505 0-1.186-.957-2.05-2.451-2.05-1.543 0-2.617.947-2.617 2.319zm8.218 1.816h.893c.791 0 1.28.4 1.28 1.045 0 .62-.523 1.04-1.27 1.04-.757 0-1.265-.386-1.309-.996h-1.41c.063 1.318 1.147 2.183 2.738 2.183 1.592 0 2.754-.874 2.754-2.105 0-.947-.595-1.572-1.577-1.719v-.087c.757-.19 1.294-.747 1.299-1.602.005-1.03-.864-1.895-2.427-1.895-1.587 0-2.588.874-2.636 2.159h1.362c.049-.65.488-1.02 1.201-1.02.688 0 1.104.414 1.104.956 0 .586-.455.991-1.124.991h-.878v1.05z" fill="#B72B1A"/></svg>
